!!!OTL-incipit: STOLZ HEINREICH DER WOLLT FREIEN GEHN
!!!ARE: Europa, Mitteleuropa, Deutschland, Nord - Deutsch
!!!SCT: Z0106
!!!TXL: @@DE
!!!YEM: Copyright 1995, estate of Helmut Schaffrath.
**kern	**text
*ICvox	*
*M2/4	*
*k[f#c#g#d#]	*
*E:	*
!LO:TX:a:t=Nord-Deutſch.	!
{8B	Stolʒ
=1	=1
8e	Hein-
8e	-rich
(16e	der
16g#)	.
(16b/	wollt
16g#)	.
=2	=2
(16f#	frei-
16e)	.
(16d#	-en
16c#)	.
8B}	gehn,
{8B	wohl
=3	=3
8e	in
8f#	das
8g#	frem-
8g#	-de
=4	=4
4f#	Land,
8r}	.
{16f#L	er
16g#J	.
=5	=5
8a	freit
16a	ei-
16a	-ne
8a	Kö-
16g#L	-nigs-
16f#J	.
=6	=6
8.b/	-toch-
16cc#	.
8a}	-ter,
{16g#L	Gy-
16f#J	.
=7	=7
8e	-rith
8e	ward
8d#	ſie
16eL	ge-
16f#J	.
=8	=8
4e	-nannt.
8r}	.
==	==
!!!AGN: Sagen - Lied, Romanze, Tod
!!!ONB: ESAC (Essen Associative Code) Database: ZUCCAL
!!!AMT: simple duple
!!!AIN: vox
!!!EED: Helmut Schaffrath
!!!EEV: 1.0
!!!GTL: I. Ernste Romanzen und Sagen.
!!!URL-scan: https://www.digitale-sammlungen.de/de/view/bsb11160571?page=205
!!!ENC: Anna Maria Matuszewska
!!!EEV: 2025/01/27
*-	*-
